Origami/22x22/apps/pia-manager.svg

<svg width="22" height="22" version="1.1" viewBox="0 0 22 22" xmlns="http://www.w3.org/2000/svg">
 <path d="m11 1.5a7 6.5 0 0 0 -7 6.5 7 6.5 0 0 0 0.0234375 0.5h-0.0234375v12c0 0.554 0.4795566 1 1.0761719 1h3.7695312l1.6152349-2h1.078124l1.615235 2h3.769531c0.596615 0 1.076172-0.446 1.076172-1v-12h-0.02734a7 6.5 0 0 0 0.02734 -0.5 7 6.5 0 0 0 -7 -6.5z" style="opacity:.2"/>
 <path d="m3 8.5c-0.554 0-1 0.446-1 1v7c0 0.554 0.446 1 1 1h2c0.554 0 1-0.446 1-1v-7c0-0.554-0.446-1-1-1h-2zm14 0c-0.554 0-1 0.446-1 1v7c0 0.554 0.446 1 1 1h2c0.554 0 1-0.446 1-1v-7c0-0.554-0.446-1-1-1h-2z" style="opacity:.2"/>
 <rect x="2" y="8" width="4" height="9" rx="1" ry="1" style="fill:#358334"/>
 <rect x="16" y="8" width="4" height="9" rx="1" ry="1" style="fill:#358334"/>
 <path d="m3 8c-0.554 0-1 0.446-1 1v0.5c0-0.554 0.446-1 1-1h2c0.554 0 1 0.446 1 1v-0.5c0-0.554-0.446-1-1-1h-2zm14 0c-0.554 0-1 0.446-1 1v0.5c0-0.554 0.446-1 1-1h2c0.554 0 1 0.446 1 1v-0.5c0-0.554-0.446-1-1-1h-2z" style="fill:#ffffff;opacity:.1"/>
 <path d="m5.0769229 8h11.846154 1.076923v12c0 0.554-0.480308 1-1.076923 1h-3.769231l-1.615384-2h-1.076924l-1.6153842 2h-3.7692309c-0.5966153 0-1.0769231-0.446-1.0769231-1v-12h1.0769231z" style="fill:#50b24e"/>
 <ellipse cx="11" cy="7.5" rx="7" ry="6.5" style="fill:#50b24e"/>
 <path d="M 11,4 A 4,4 0 0 0 7,8 4,4 0 0 0 7.036135,8.5 l 7.928711,0 A 4,4 0 0 0 15,8 4,4 0 0 0 11,4 Z" style="opacity:.2"/>
 <path d="M 11,4 A 4,3.5555556 0 0 0 7,7.5555556 4,3.5555556 0 0 0 7.036135,8 l 7.928711,0 A 4,3.5555556 0 0 0 15,7.5555556 4,3.5555556 0 0 0 11,4 Z" style="fill:#ffffff"/>
 <circle cx="9" cy="6" r="1" style="fill:#3f3f3f"/>
 <circle cx="13" cy="6" r="1" style="fill:#3f3f3f"/>
 <path class="ColorScheme-Text" d="m11 10.5c-1.108 0-2 0.9108-2 2.03125v0.96875h-0.5c-0.277 0-0.5 0.223-0.5 0.5v3c0 0.277 0.223 0.5 0.5 0.5h5c0.277 0 0.5-0.223 0.5-0.5v-3c0-0.277-0.223-0.5-0.5-0.5h-0.5v-0.96875c0-1.12-0.892-2.03125-2-2.03125zm0 1c0.554 0 1 0.446 1 1v1h-2v-1c0-0.554 0.446-1 1-1z" style="opacity:.2"/>
 <path class="ColorScheme-Text" d="m11 10c-1.108 0-2 0.9108-2 2.03125v0.96875h-0.5c-0.277 0-0.5 0.223-0.5 0.5v3c0 0.277 0.223 0.5 0.5 0.5h5c0.277 0 0.5-0.223 0.5-0.5v-3c0-0.277-0.223-0.5-0.5-0.5h-0.5v-0.96875c0-1.12-0.892-2.03125-2-2.03125zm0 1c0.554 0 1 0.446 1 1v1h-2v-1c0-0.554 0.446-1 1-1z" style="fill:#ffffff"/>
 <path d="M 11,1 A 7,6.5 0 0 0 4,7.5 7,6.5 0 0 0 4.0097656,7.7246094 7,6.5 0 0 1 11,1.5 7,6.5 0 0 1 17.986328,7.7480469 7,6.5 0 0 0 18,7.5 7,6.5 0 0 0 11,1 Z m -7,7 0,0.5 0.023437,0 A 7,6.5 0 0 1 4,8 Z M 18,8 A 7,6.5 0 0 1 17.97266,8.5 L 18,8.5 18,8 Z" style="fill:#ffffff;opacity:.2"/>
</svg>

<svg xmlns="http://www.w3.org/2000/svg" width="22" height="22" version="1.1" viewBox="0 0 22 22">
 <path style="opacity:0.2" d="M 11,1.5 A 7,6.5 0 0 0 4,8 7,6.5 0 0 0 4.0234375,8.5 L 4,8.5 l 0,12 c 0,0.554 0.4795566,1 1.0761719,1 l 3.7695312,0 1.6152349,-2 1.078124,0 1.615235,2 3.769531,0 C 17.520443,21.5 18,21.054 18,20.5 l 0,-12 -0.02734,0 A 7,6.5 0 0 0 18,8 7,6.5 0 0 0 11,1.5 Z"/>
 <path style="opacity:0.2" d="m 3,8.5 c -0.554,0 -1,0.446 -1,1 l 0,7 c 0,0.554 0.446,1 1,1 l 2,0 c 0.554,0 1,-0.446 1,-1 l 0,-7 C 6,8.946 5.554,8.5 5,8.5 l -2,0 z m 14,0 c -0.554,0 -1,0.446 -1,1 l 0,7 c 0,0.554 0.446,1 1,1 l 2,0 c 0.554,0 1,-0.446 1,-1 l 0,-7 c 0,-0.554 -0.446,-1 -1,-1 l -2,0 z"/>
 <rect style="fill:#358334" width="4" height="9" x="2" y="8" rx="1" ry="1"/>
 <rect style="fill:#358334" width="4" height="9" x="16" y="8" rx="1" ry="1"/>
 <path style="opacity:0.1;fill:#ffffff" d="M 3,8 C 2.446,8 2,8.446 2,9 l 0,0.5 c 0,-0.554 0.446,-1 1,-1 l 2,0 c 0.554,0 1,0.446 1,1 L 6,9 C 6,8.446 5.554,8 5,8 L 3,8 Z m 14,0 c -0.554,0 -1,0.446 -1,1 l 0,0.5 c 0,-0.554 0.446,-1 1,-1 l 2,0 c 0.554,0 1,0.446 1,1 L 20,9 C 20,8.446 19.554,8 19,8 l -2,0 z"/>
 <path style="fill:#50b24e" d="M 5.0769229,8 16.923077,8 C 17.519692,8 18,8 18,8 l 0,12 c 0,0.554 -0.480308,1 -1.076923,1 l -3.769231,0 -1.615384,-2 -1.076924,0 -1.6153842,2 -3.7692309,0 C 4.4803076,21 3.9999998,20.554 3.9999998,20 l 0,-12 c 0,0 0.4803078,0 1.0769231,0 z"/>
 <ellipse style="fill:#50b24e" cx="11" cy="7.5" rx="7" ry="6.5"/>
 <path style="opacity:0.2" d="M 11,4 A 4,4 0 0 0 7,8 4,4 0 0 0 7.036135,8.5 l 7.928711,0 A 4,4 0 0 0 15,8 4,4 0 0 0 11,4 Z"/>
 <path style="fill:#ffffff" d="M 11,4 A 4,3.5555556 0 0 0 7,7.5555556 4,3.5555556 0 0 0 7.036135,8 l 7.928711,0 A 4,3.5555556 0 0 0 15,7.5555556 4,3.5555556 0 0 0 11,4 Z"/>
 <circle style="fill:#3f3f3f" cx="9" cy="6" r="1"/>
 <circle style="fill:#3f3f3f" cx="13" cy="6" r="1"/>
 <path style="opacity:0.2" class="ColorScheme-Text" d="m 11,10.5 c -1.108,0 -2,0.9108 -2,2.03125 L 9,13.5 8.5,13.5 C 8.223,13.5 8,13.723 8,14 l 0,3 c 0,0.277 0.223,0.5 0.5,0.5 l 5,0 c 0.277,0 0.5,-0.223 0.5,-0.5 l 0,-3 c 0,-0.277 -0.223,-0.5 -0.5,-0.5 l -0.5,0 0,-0.96875 C 13,11.41125 12.108,10.5 11,10.5 Z m 0,1 c 0.554,0 1,0.446 1,1 l 0,1 -2,0 0,-1 c 0,-0.554 0.446,-1 1,-1 z"/>
 <path style="fill:#ffffff" class="ColorScheme-Text" d="M 11,10 C 9.892,10 9,10.9108 9,12.03125 L 9,13 8.5,13 C 8.223,13 8,13.223 8,13.5 l 0,3 C 8,16.777 8.223,17 8.5,17 l 5,0 c 0.277,0 0.5,-0.223 0.5,-0.5 l 0,-3 C 14,13.223 13.777,13 13.5,13 L 13,13 13,12.03125 C 13,10.91125 12.108,10 11,10 Z m 0,1 c 0.554,0 1,0.446 1,1 l 0,1 -2,0 0,-1 c 0,-0.554 0.446,-1 1,-1 z"/>
 <path style="opacity:0.2;fill:#ffffff" d="M 11,1 A 7,6.5 0 0 0 4,7.5 7,6.5 0 0 0 4.0097656,7.7246094 7,6.5 0 0 1 11,1.5 7,6.5 0 0 1 17.986328,7.7480469 7,6.5 0 0 0 18,7.5 7,6.5 0 0 0 11,1 Z m -7,7 0,0.5 0.023437,0 A 7,6.5 0 0 1 4,8 Z M 18,8 A 7,6.5 0 0 1 17.97266,8.5 L 18,8.5 18,8 Z"/>
</svg>
